src/images/svg/envelope.svg

<svg width="18" height="14" viewBox="0 0 18 14" fill="none" xmlns="http://www.w3.org/2000/svg">
<path d="M2.6 1H15.4C15.824 1.00119 16.2302 1.1596 16.53 1.44065C16.8298 1.7217 16.9987 2.10254 17 2.5V11.5C16.9987 11.8975 16.8298 12.2783 16.53 12.5593C16.2302 12.8404 15.824 12.9988 15.4 13H2.6C2.17604 12.9988 1.76981 12.8404 1.47003 12.5593C1.17024 12.2783 1.00127 11.8975 1 11.5V2.5C1.00127 2.10254 1.17024 1.7217 1.47003 1.44065C1.76981 1.1596 2.17604 1.00119 2.6 1V1Z" stroke="#FAFAFA" stroke-width="1.2" stroke-linecap="round" stroke-linejoin="round"/>
<path d="M17 2.49951L9 7.74951L1 2.49951" stroke="#FAFAFA" stroke-width="1.2" stroke-linecap="round" stroke-linejoin="round"/>
</svg>

<svg width="18" height="14" fill="none" xmlns="http://www.w3.org/2000/svg"><path d="M2.6 1h12.8c.424.001.83.16 1.13.44.3.282.469.663.47 1.06v9c-.001.398-.17.778-.47 1.06-.3.28-.706.439-1.13.44H2.6a1.66 1.66 0 0 1-1.13-.44A1.458 1.458 0 0 1 1 11.5v-9c.001-.397.17-.778.47-1.06.3-.28.706-.439 1.13-.44v0z" stroke="#FAFAFA" stroke-width="1.2" stroke-linecap="round" stroke-linejoin="round"/><path d="M17 2.5 9 7.75 1 2.5" stroke="#FAFAFA" stroke-width="1.2" stroke-linecap="round" stroke-linejoin="round"/></svg>
